X: 8947
T: Curraghbawn House
R: jig
M: 6/8
K: Dmajor
D|EDE ~G2 A|BAB ~d2 d|DFA dcB|ABG FED|
EFE ~G2 A|BAB ~g2 f|edc Bcd|e3 e2:|
B|~e2 f ~g2 f|efe ~B2 c|dfe dcB|ABG FED|
EFE ~G2 A|BAB ~g2 f|edc Bcd|e3 e2:|

